icons/mail-downright.svg

<svg xmlns="http://www.w3.org/2000/svg" viewBox="0 0 24 24" fill="currentColor">
  <path d="M3.75 8c0-1.28579.96421-2.25 2.25-2.25h12c1.2858 0 2.25.96421 2.25 2.25v5c0 .4142.3358.75.75.75s.75-.3358.75-.75V8c0-2.11421-1.6358-3.75-3.75-3.75H6C3.88579 4.25 2.25 5.88579 2.25 8v8c0 2.1142 1.63579 3.75 3.75 3.75h6c.4142 0 .75-.3358.75-.75s-.3358-.75-.75-.75H6c-1.28579 0-2.25-.9642-2.25-2.25V8Zm2.591.33196c-.3689-.18837-.82066-.04203-1.00904.32687-.18837.3689-.04203.82066.32687 1.00904l4.69997 2.40003.0057.0029c1.0224.5111 2.1587.4951 3.24.0145.0123-.0055.0245-.0113.0365-.0174l4.7-2.40003c.3689-.18838.5152-.64014.3269-1.00904-.1884-.3689-.6402-.51524-1.0091-.32687l-4.681 2.39034c-.7109.3109-1.3675.2933-1.9398.0081L6.341 8.33196Zm8.5376 6.02914c.2979-.2878.7727-.2798 1.0605.018l2.0109 2.0802v-.9588c0-.4142.3358-.75.75-.75s.75.3358.75.75v2.4c0 .3788-.1976.6536-.394.8107-.1726.1381-.4086.2393-.656.2393H16c-.4142 0-.75-.3358-.75-.75s.3358-.75.75-.75h.8219l-1.9612-2.0288c-.2879-.2979-.2799-.7727.0179-1.0606Z"/>
</svg>

<svg width="24" height="24" viewBox="0 0 24 24" fill="none" xmlns="http://www.w3.org/2000/svg">
<path fill-rule="evenodd" clip-rule="evenodd" d="M3.75 8C3.75 6.71421 4.71421 5.75 6 5.75H18C19.2858 5.75 20.25 6.71421 20.25 8V13C20.25 13.4142 20.5858 13.75 21 13.75C21.4142 13.75 21.75 13.4142 21.75 13V8C21.75 5.88579 20.1142 4.25 18 4.25H6C3.88579 4.25 2.25 5.88579 2.25 8V16C2.25 18.1142 3.88579 19.75 6 19.75H12C12.4142 19.75 12.75 19.4142 12.75 19C12.75 18.5858 12.4142 18.25 12 18.25H6C4.71421 18.25 3.75 17.2858 3.75 16V8ZM6.341 8.33196C5.9721 8.14359 5.52034 8.28993 5.33196 8.65883C5.14359 9.02773 5.28993 9.47949 5.65883 9.66787L10.3588 12.0679L10.3588 12.0679L10.3645 12.0708C11.3869 12.5819 12.5232 12.5659 13.6045 12.0853C13.6168 12.0798 13.629 12.074 13.641 12.0679L18.341 9.66787C18.7099 9.47949 18.8562 9.02773 18.6679 8.65883C18.4795 8.28993 18.0277 8.14359 17.6588 8.33196L12.9778 10.7223C12.2669 11.0332 11.6103 11.0156 11.038 10.7304L6.341 8.33196ZM14.8786 14.3611C15.1765 14.0733 15.6513 14.0813 15.9391 14.3791L17.95 16.4593V15.5005C17.95 15.0863 18.2858 14.7505 18.7 14.7505C19.1142 14.7505 19.45 15.0863 19.45 15.5005V17.9005C19.45 18.2793 19.2524 18.5541 19.056 18.7112C18.8834 18.8493 18.6474 18.9505 18.4 18.9505H16C15.5858 18.9505 15.25 18.6147 15.25 18.2005C15.25 17.7863 15.5858 17.4505 16 17.4505H16.8219L14.8607 15.4217C14.5728 15.1238 14.5808 14.649 14.8786 14.3611Z" fill="black"/>
</svg>
